X: 2971
T: Basket Of Yarn, The
R: reel
M: 4/4
K: Gmajor
"G"DEGB AGED|"C"c/c/c cA BGEG|"G"DEGB AGED|"Am"c/B/A BG "D7"AGEG|
"G"DEGB AGED|"C"~c3 e "G"dBAB|"Am"c/B/A BG Agfg|1 "D7"ecAF "G"G3E:|2 "D7"ecAF G3c||
|:"G"Bd d2 Bdgf|"C"edeg "D7"aged|"G"Bdd^c "Em"dedB|"Am"c/B/A BG "D7"AGEG|
"G"Bd d2 Bdgf|"C"edeg "Am"a2 ga|1 "G"bgag "Em"edge|"Am"dBAB "D7"AG Ac:|2 "G"bgag "Em"gedg|"D7"ecAF "G"G3E||

